X:1
T:St. Leonard (Smart), CM
T:Henry Smart, 1867
T:St. Leonard (Smart), CM
T:Public Domain
C:Henry Smart, 1867
Z:Public Domain
%%score ( 1 2 ) ( 3 4 )
L:1/8
M:4/4
K:C
V:1 treble 
V:2 treble 
V:3 bass 
V:4 bass 
V:1
 [EG]2 | [EG]2 [CE]2 [CA]2 [CG]2 | [FA]2 [FB]2 [Ec]2 [Gd]2 | [Ge]2 [Ac]2 [GB]2 [^FA]2 | G6 [Gd]2 | %5
 [GB]2 [DG]2 [Gc]2 [Gd]2 | [Ge]2 [Gc]2 [CA]2 [Fd]2 | [EG]2 [Ec]2 [Dc]2 [DB]2 | [Ec]6 |] %9
V:2
 x2 | x8 | x8 | x8 | G6 x2 | x8 | x8 | x8 | x6 |] %9
V:3
 [C,C]2 | [C,C]2 [C,G,]2 F,2 [E,G,]2 | [D,F,]2 [D,F,]2 [C,G,]2 [G,B,]2 | %3
 [C,C]2 [C,E]2 [D,D]2 [D,C]2 | [G,B,]6 [G,B,]2 | [G,D]2 (G,F,) [E,C]2 [D,B,]2 | %6
 [C,C]2 [E,G,]2 [F,A,]2 (A,B,) | [E,C]2 [A,C]2 [F,A,]2 G,2 | [C,G,]6 |] %9
V:4
 x2 | x8 | x8 | x8 | x8 | x2 B,2 x4 | x6 D,2 | x8 | x6 |] %9

